storage/app/icons/phosphoricons/light/rainbow-light.svg

<svg xmlns="http://www.w3.org/2000/svg" fill="currentColor" viewBox="0 0 256 256"><path d="M182 168v16a6 6 0 0 1-12 0v-16a42 42 0 0 0-84 0v16a6 6 0 0 1-12 0v-16a54 54 0 0 1 108 0m-54-86a86.1 86.1 0 0 0-86 86v16a6 6 0 0 0 12 0v-16a74 74 0 0 1 148 0v16a6 6 0 0 0 12 0v-16a86.1 86.1 0 0 0-86-86m0-32A118.13 118.13 0 0 0 10 168v16a6 6 0 0 0 12 0v-16a106 106 0 0 1 212 0v16a6 6 0 0 0 12 0v-16A118.13 118.13 0 0 0 128 50"/></svg>

<svg xmlns="http://www.w3.org/2000/svg" viewBox="0 0 256 256" fill="currentColor"><path d="M182,168v16a6,6,0,0,1-12,0V168a42,42,0,0,0-84,0v16a6,6,0,0,1-12,0V168a54,54,0,0,1,108,0ZM128,82a86.1,86.1,0,0,0-86,86v16a6,6,0,0,0,12,0V168a74,74,0,0,1,148,0v16a6,6,0,0,0,12,0V168A86.1,86.1,0,0,0,128,82Zm0-32A118.13,118.13,0,0,0,10,168v16a6,6,0,0,0,12,0V168a106,106,0,0,1,212,0v16a6,6,0,0,0,12,0V168A118.13,118.13,0,0,0,128,50Z"/></svg>
